X: 33501
T: Railway, The
R: jig
M: 6/8
K: Gmajor
|:D|G2G GBd|g2d d2d|e2d c2B|ABG FED|
G2G GBd|g2d d2d|edc BAG|A3 G2:|
|:d|b2b b2a|g2g g2d|e2d efg|a2g fed|
b2b b2a|g2g g2d|efg agf|g3 g2:|

